assets/Small airplane/Flat/small_airplane_flat.svg

<svg width="32" height="32" viewBox="0 0 32 32" fill="none" xmlns="http://www.w3.org/2000/svg">
<path d="M27 24.7815L29.7736 22.15C30.283 21.6667 29.7736 21.1833 29.7736 21.1833L20.0943 12L15 18.5899L26 24.7815C26.5 25.2731 27 24.7815 27 24.7815Z" fill="#F92F60"/>
<path d="M9.85009 2.23255L7.22023 5.00768C7.22023 5.00768 6.72892 5.50797 7.22082 6.00768L8.42805 8.1495L10.5 10.0002L11.4814 13.5665L13.4189 17.004L20.0058 11.9058L10.8168 2.23198C10.8168 2.23198 10.3331 1.72283 9.85009 2.23255Z" fill="#F92F60"/>
<path d="M29.7736 22.1502L27 24.7817C27 24.7817 26.5 25.2733 26 24.7817L23.8611 23.5777L22 21.0002L18.4287 20.52L15 18.59L20.0943 12.0002L29.7736 21.1835C29.7736 21.1835 30.283 21.6668 29.7736 22.1502Z" fill="#F92F60"/>
<path d="M8.97408 23.1298L9 23.1038L8.93519 23.0649L8.89631 23.0001L8.87032 23.026L3.94269 20.071C3.73845 19.954 3.48559 19.9832 3.32025 20.149L2.15318 21.3192C1.94894 21.524 1.94894 21.8458 2.15318 22.0409L9.95927 29.8469C10.1543 30.0512 10.4761 30.0512 10.6809 29.8469L11.8511 28.6799C12.0169 28.5145 12.0462 28.2617 11.9292 28.0574L8.97408 23.1298Z" fill="#F92F60"/>
<path d="M26.8612 9.81487C27.1192 10.0617 27.5231 10.0617 27.77 9.81487L27.8149 9.76999C28.0617 9.51192 28.0617 9.108 27.8149 8.86115L23.1389 4.18513C22.8808 3.93829 22.4769 3.93829 22.23 4.18513L22.1851 4.23001C21.9383 4.48808 21.9383 4.892 22.1851 5.13885L26.8612 9.81487Z" fill="#635994"/>
<path d="M23.859 23.5762L24.7966 22.6386C25.0153 22.4199 25.0153 22.0653 24.7966 21.8466L21.3459 18.396C21.1272 18.1773 20.7727 18.1773 20.554 18.396L18.4297 20.5202L23.859 23.5762Z" fill="white"/>
<path d="M26.1449 7.65994L24.3042 9.5L22.5 7.6965L24.3408 5.85644C24.8162 5.38119 25.5842 5.38119 26.0596 5.85644L26.1328 5.92956C26.6204 6.41699 26.6204 7.18469 26.1449 7.65994Z" fill="#321B41"/>
<path d="M24.5198 12.7815L8.9725 24.7457C8.48854 25.1186 7.79284 25.0783 7.35929 24.6449C6.92574 24.2115 6.87533 23.516 7.25847 23.0322L19.2164 7.47969C20.6078 5.66539 23.2797 5.49405 24.8929 7.10675C26.5061 8.72954 26.3347 11.3905 24.5198 12.7815Z" fill="#CDC4D6"/>
<path d="M10.8367 21.9691L5.96914 26.8367C5.75136 27.0544 5.41379 27.0544 5.19601 26.8367L5.16334 26.804C4.94555 26.5862 4.94555 26.2486 5.16334 26.0309L10.0308 21.1633C10.2486 20.9456 10.5862 20.9456 10.804 21.1633L10.8367 21.196C11.0544 21.4029 11.0544 21.7514 10.8367 21.9691Z" fill="#B4ACBC"/>
<path d="M23.6817 10.8398L21.1509 8.30816C20.9497 8.10691 20.9497 7.76795 21.1509 7.5667L21.225 7.49255C21.8815 6.83582 22.951 6.83582 23.6181 7.49255L24.5076 8.38232C25.1641 9.03905 25.1641 10.1089 24.5076 10.7762L24.4335 10.8504C24.2217 11.0516 23.8934 11.0516 23.6817 10.8398Z" fill="#00A6ED"/>
<path d="M9.36433 7.20966L8.42725 8.14786L11.4864 13.5753L13.6095 11.4498C13.828 11.231 13.8278 10.8764 13.609 10.6578L10.1563 7.2092C9.93747 6.99063 9.5829 6.99084 9.36433 7.20966ZM24.7963 22.6385L23.8586 23.5761L18.4293 20.5201L20.5536 18.3958C20.7723 18.1772 21.1269 18.1772 21.3456 18.3958L24.7963 21.8465C25.015 22.0652 25.015 22.4198 24.7963 22.6385Z" fill="#F4F4F4"/>
</svg>

<svg xmlns="http://www.w3.org/2000/svg" width="32" height="32" fill="none"><path fill="#F92F60" d="m27 24.782 2.774-2.632c.509-.483 0-.967 0-.967L20.094 12 15 18.59l11 6.192c.5.491 1 0 1 0ZM9.85 2.233 7.22 5.008s-.491.5 0 1l1.208 2.141L10.5 10l.981 3.566 1.938 3.438 6.587-5.098-9.19-9.674s-.483-.51-.966 0Z"/><path fill="#F92F60" d="M29.774 22.15 27 24.782s-.5.491-1 0l-2.139-1.204L22 21l-3.571-.48L15 18.59 20.094 12l9.68 9.183s.509.484 0 .967ZM8.974 23.13 9 23.104l-.065-.04L8.896 23l-.026.026-4.927-2.955a.513.513 0 0 0-.623.078l-1.167 1.17a.502.502 0 0 0 0 .722l7.806 7.806a.501.501 0 0 0 .722 0l1.17-1.167a.513.513 0 0 0 .078-.623L8.974 23.13Z"/><path fill="#635994" d="M26.861 9.815a.65.65 0 0 0 .909 0l.045-.045a.65.65 0 0 0 0-.909l-4.676-4.676a.65.65 0 0 0-.909 0l-.045.045a.65.65 0 0 0 0 .909l4.676 4.676Z"/><path fill="#fff" d="m23.859 23.576.938-.937a.56.56 0 0 0 0-.792l-3.451-3.451a.56.56 0 0 0-.792 0L18.43 20.52l5.429 3.056Z"/><path fill="#321B41" d="m26.145 7.66-1.84 1.84L22.5 7.697l1.84-1.84a1.214 1.214 0 0 1 1.72 0l.073.073c.487.487.487 1.255.012 1.73Z"/><path fill="#CDC4D6" d="M24.52 12.781 8.973 24.746a1.23 1.23 0 0 1-1.614-.101 1.217 1.217 0 0 1-.1-1.613L19.215 7.48a3.782 3.782 0 1 1 5.303 5.302Z"/><path fill="#B4ACBC" d="m10.837 21.97-4.868 4.867a.54.54 0 0 1-.773 0l-.033-.033a.54.54 0 0 1 0-.773l4.868-4.868a.54.54 0 0 1 .773 0l.033.033a.54.54 0 0 1 0 .773Z"/><path fill="#00A6ED" d="M23.682 10.84 21.15 8.308a.53.53 0 0 1 0-.741l.074-.074a1.7 1.7 0 0 1 2.393 0l.89.89a1.701 1.701 0 0 1 0 2.393l-.075.074a.534.534 0 0 1-.751-.01Z"/><path fill="#F4F4F4" d="m9.364 7.21-.937.938 3.06 5.427 2.123-2.125a.56.56 0 0 0-.001-.792l-3.453-3.449a.56.56 0 0 0-.792 0Zm15.432 15.429-.937.937-5.43-3.056 2.125-2.124a.56.56 0 0 1 .792 0l3.45 3.45a.56.56 0 0 1 0 .793Z"/></svg>
